X: 26
T: En voyant sa dame
N: Derived from Bus3019-En_voyant_sa_dame.krn
C: Antoine Busnoys
%%abc-version 2.0
%%abcx-abcm2ps-target-version 5.9.1 (29 Sep 2008)
%%abc-creator hum2abc beta
%%abcx-conversion-date 2019/02/16 20:26:07
%%abc-edited-by Jesse Rodin
%%abc-edited-by Chris Gage 04-13-2015
%%abcx-initial-encoding-date 2015/05/03/
%%humdrum-veritas 320340777
%%humdrum-veritas-data 1321011939
%%linebreak <none>
%%barnumbers 0
L: 1/4
M: 2/1
Q: 1/2=120
V: 1 clef=treble
V: 2 clef=treble-8
V: 3 clef=bass
K: F
[V:1] z8 | 
[V:2] F6G2 | 
[V:3] F,,4B,,4 | 
[V:1] C3DE2F2- | 
[V:2] A4A4 | 
[V:3] A,,3B,,C,2D,2- | 
[V:1] F2EDE4- | 
[V:2] B4c4- | 
[V:3] D,2C,B,,A,,3B,, | 
[V:1] E2F2G2A2- | 
[V:2] c2A2B2AG | 
[V:3] C,2D,2G,,2D,2- | 
[V:1] AFF4E2 | 
[V:2] F2A2G4 | 
[V:3] D,E,F,2C,4 | 
[V:1] F2A2G2B2 | 
[V:2] F2c3Bd2- | 
[V:3] F,,4z4 | 
[V:1] A2GFE3D | 
[V:2] dcBAG4 | 
[V:3] F,,4C,4 | 
[V:1] F2EDC2D2- | 
[V:2] F4z4 | 
[V:3] D,2C,B,,A,,2B,,2- | 
[V:1] D2CB,A,4 | 
[V:2] B4c3d | 
[V:3] B,,2A,,G,,F,,2C,2- | 
[V:1] z4A4 | 
[V:2] e2f3ec2 | 
[V:3] C,2D,3E,F,2 | 
[V:1] B4c2A2- | 
[V:2] d2cBA4 | 
[V:3] B,,4F,4 | 
[V:1] A2G2A4 | 
[V:2] B4A2F2 | 
[V:3] G,4D,4 | 
[V:1] B4A2F2 | 
[V:2] G4A2B2- | 
[V:3] z4D,4 | 
[V:1] G4A4- | 
[V:2] B2c2A2d2 | 
[V:3] E,4F,4- | 
[V:1] A2F2G4 | 
[V:2] c2f4e2 | 
[V:3] F,2D,2C,4 | 
[V:1] F2A2B2c2- | 
[V:2] f3ed2c2- | 
[V:3] D,2F,2G,2A,2- | 
[V:1] c2B2A2GF | 
[V:2] cBG2A2B2 | 
[V:3] A,G,E,2F,2E,D, | 
[V:1] E8 | 
[V:2] c8- | 
[V:3] C,4z2C,2- | 
[V:1] z4E4 | 
[V:2] c8 | 
[V:3] C,D,E,4C,2 | 
[V:1] F4G2E2- | 
[V:2] z8 | 
[V:3] D,4C,4- | 
[V:1] E2C2D4 | 
[V:2] e4f4 | 
[V:3] C,4z4 | 
[V:1] E3DC2A,2 | 
[V:2] g2e4c2 | 
[V:3] C,4A,,4 | 
[V:1] =B,4C2G2- | 
[V:2] d4e3d | 
[V:3] G,,4C,3D, | 
[V:1] G2FED4 | 
[V:2] c2A2=B4 | 
[V:3] E,2F,2G,4 | 
[V:1] C2E3FG2 | 
[V:2] c2g3fe2 | 
[V:3] C,8 | 
[V:1] F2A3Bc2 | 
[V:2] d2c3BA2 | 
[V:3] F,8 | 
[V:1] B3AB2A2- | 
[V:2] G2d3ef2- | 
[V:3] G,6D,2 | 
[V:1] A2G4^F2 | 
[V:2] f2B2A4 | 
[V:3] F,2G,2D,3C,/D,/ | 
[V:1] G2E2D4 | 
[V:2] G4z2d2- | 
[V:3] _E,2D,C,B,,2G,,2 | 
[V:1] z4z2d2- | 
[V:2] d2c2d2B2- | 
[V:3] B,,2A,,2B,,4 | 
[V:1] d2c2d2B2- | 
[V:2] B2A2B2d2 | 
[V:3] C,4z2B,,2 | 
[V:1] B2A2B2AG | 
[V:2] c4B4 | 
[V:3] _E,2F,2G,3F, | 
[V:1] F2G3FD2 | 
[V:2] A2G3AB2 | 
[V:3] D,2_E,3F,G,2 | 
[V:1] EDCB,A,3G, | 
[V:2] cBAGF2c2- | 
[V:3] C,4z2G,2- | 
[V:1] A,2B,2C2D2- | 
[V:2] c2d2e2f2- | 
[V:3] G,E,D,2C,2B,,2- | 
[V:1] DEF2G2A2- | 
[V:2] fed2c3B | 
[V:3] B,,C,D,2E,2F,2- | 
[V:1] AGF3EED | 
[V:2] c2A2G4 | 
[V:3] F,E,F,2C,4 | 
[V:1] F8 |]  
[V:2] F8 |]  
[V:3] F,,8 |]  



